static/nodeIcons/cmd/search.svg

<?xml version="1.0" standalone="no"?><!DOCTYPE svg PUBLIC "-//W3C//DTD SVG 1.1//EN" "http://www.w3.org/Graphics/SVG/1.1/DTD/svg11.dtd"><svg t="1506348101389" class="icon" style="" viewBox="0 0 1024 1024" version="1.1" xmlns="http://www.w3.org/2000/svg" p-id="5138" xmlns:xlink="http://www.w3.org/1999/xlink" width="200" height="200"><defs><style type="text/css"></style></defs><path d="M1006.933333 913.066667l-162.133333-162.133333c59.733333-76.8 93.866667-174.933333 93.866667-281.6 0-260.266667-209.066667-469.333333-469.333333-469.333333C209.066667 0 0 209.066667 0 469.333333c0 260.266667 209.066667 469.333333 469.333333 469.333333 123.733333 0 234.666667-46.933333 315.733333-123.733333l162.133333 162.133333c8.533333 8.533333 21.333333 8.533333 29.866667 0l29.866667-29.866667C1015.466667 934.4 1015.466667 921.6 1006.933333 913.066667zM85.333333 469.333333c0-213.333333 170.666667-384 384-384 213.333333 0 384 170.666667 384 384 0 213.333333-170.666667 384-384 384C256 853.333333 85.333333 682.666667 85.333333 469.333333z" p-id="5139"></path><path d="M221.866667 465.066667C221.866667 465.066667 221.866667 465.066667 221.866667 465.066667c-12.8 0-21.333333-8.533333-21.333333-21.333333 0-4.266667 4.266667-93.866667 59.733333-157.866667 85.333333-98.133333 179.2-81.066667 183.466667-81.066667 12.8 4.266667 17.066667 12.8 17.066667 25.6-4.266667 12.8-12.8 17.066667-25.6 17.066667-4.266667 0-72.533333-12.8-140.8 64-46.933333 51.2-51.2 132.266667-51.2 132.266667C243.2 456.533333 234.666667 465.066667 221.866667 465.066667z" p-id="5140"></path></svg>

<svg class="icon" viewBox="0 0 1024 1024" xmlns="http://www.w3.org/2000/svg" width="200" height="200"><defs><style/></defs><path d="M1006.933 913.067L844.8 750.933c59.733-76.8 93.867-174.933 93.867-281.6C938.667 209.067 729.6 0 469.333 0 209.067 0 0 209.067 0 469.333 0 729.6 209.067 938.667 469.333 938.667c123.734 0 234.667-46.934 315.734-123.734L947.2 977.067c8.533 8.533 21.333 8.533 29.867 0l29.866-29.867c8.534-12.8 8.534-25.6 0-34.133zm-921.6-443.734c0-213.333 170.667-384 384-384 213.334 0 384 170.667 384 384 0 213.334-170.666 384-384 384-213.333 0-384-170.666-384-384z"/><path d="M221.867 465.067c-12.8 0-21.334-8.534-21.334-21.334 0-4.266 4.267-93.866 59.734-157.866 85.333-98.134 179.2-81.067 183.466-81.067 12.8 4.267 17.067 12.8 17.067 25.6-4.267 12.8-12.8 17.067-25.6 17.067-4.267 0-72.533-12.8-140.8 64-46.933 51.2-51.2 132.266-51.2 132.266 0 12.8-8.533 21.334-21.333 21.334z"/></svg>
